svg/game-controller-sharp.svg

<?xml version="1.0" encoding="UTF-8" standalone="no"?>
<svg
   xmlns:dc="http://purl.org/dc/elements/1.1/"
   xmlns:cc="http://creativecommons.org/ns#"
   xmlns:rdf="http://www.w3.org/1999/02/22-rdf-syntax-ns#"
   xmlns:svg="http://www.w3.org/2000/svg"
   xmlns="http://www.w3.org/2000/svg"
   xmlns:sodipodi="http://sodipodi.sourceforge.net/DTD/sodipodi-0.dtd"
   xmlns:inkscape="http://www.inkscape.org/namespaces/inkscape"
   class="ionicon"
   viewBox="0 0 512 512"
   version="1.1"
   id="svg6"
   sodipodi:docname="game-controller-sharp.svg"
   inkscape:version="1.0.2 (e86c8708, 2021-01-15)">
  <metadata
     id="metadata12">
    <rdf:RDF>
      <cc:Work
         rdf:about="">
        <dc:format>image/svg+xml</dc:format>
        <dc:type
           rdf:resource="http://purl.org/dc/dcmitype/StillImage" />
      </cc:Work>
    </rdf:RDF>
  </metadata>
  <defs
     id="defs10" />
  <sodipodi:namedview
     pagecolor="#ffffff"
     bordercolor="#666666"
     borderopacity="1"
     objecttolerance="10"
     gridtolerance="10"
     guidetolerance="10"
     inkscape:pageopacity="0"
     inkscape:pageshadow="2"
     inkscape:window-width="689"
     inkscape:window-height="480"
     id="namedview8"
     showgrid="false"
     inkscape:zoom="1.3027344"
     inkscape:cx="256"
     inkscape:cy="256"
     inkscape:window-x="44"
     inkscape:window-y="25"
     inkscape:window-maximized="0"
     inkscape:current-layer="svg6" />
  <title
     id="title2">Game Controller</title>
  <path
     style="color:#000000;font-style:normal;font-variant:normal;font-weight:normal;font-stretch:normal;font-size:medium;line-height:normal;font-family:sans-serif;font-variant-ligatures:normal;font-variant-position:normal;font-variant-caps:normal;font-variant-numeric:normal;font-variant-alternates:normal;font-variant-east-asian:normal;font-feature-settings:normal;font-variation-settings:normal;text-indent:0;text-align:start;text-decoration:none;text-decoration-line:none;text-decoration-style:solid;text-decoration-color:#000000;letter-spacing:normal;word-spacing:normal;text-transform:none;writing-mode:lr-tb;direction:ltr;text-orientation:mixed;dominant-baseline:auto;baseline-shift:baseline;text-anchor:start;white-space:normal;shape-padding:0;shape-margin:0;inline-size:0;clip-rule:nonzero;display:inline;overflow:visible;visibility:visible;isolation:auto;mix-blend-mode:normal;color-interpolation:sRGB;color-interpolation-filters:linearRGB;solid-color:#000000;solid-opacity:1;vector-effect:none;fill:#000000;fill-opacity:1;fill-rule:nonzero;stroke-width:1;stroke-linecap:butt;stroke-linejoin:miter;stroke-miterlimit:4;stroke-dasharray:none;stroke-dashoffset:0;stroke-opacity:1;color-rendering:auto;image-rendering:auto;shape-rendering:auto;text-rendering:auto;enable-background:accumulate;stop-color:#000000;stop-opacity:1;stroke:none;opacity:1"
     d="M 478.07,356.88 439,151 C 430.14,110.65 416,80 351,80 H 145 C 79,80 65.86,110.65 57,151 L 18,356.88 C 11,391 22.43,418.13 51.37,428.69 80.31,439.25 103,423 119.18,391.3 l 15.42,-30.52 c 2.72325,-5.38554 8.24509,-8.78062 14.28,-8.78 h 198.28 c 6.03491,-6.2e-4 11.55675,3.39446 14.28,8.78 l 15.42,30.52 c 16.14,31.7 38.88,48 67.81,37.39 C 473.6,418.08 485,391 478.07,356.88 Z M 224,240 h -48 v 48 H 144 V 240 H 96 v -32 h 48 v -48 h 32 v 48 h 48 z m 68,4 C 274.18066,244 265.25994,222.45723 277.85858,209.85858 290.45723,197.25994 312,206.18066 312,224 c 0,11.04569 -8.95431,20 -20,20 z m 44,44 C 318.18066,288 309.25994,266.45723 321.85858,253.85858 334.45723,241.25994 356,250.18066 356,268 c 0,11.04569 -8.95431,20 -20,20 z m 0,-88 C 318.18066,200 309.25994,178.45723 321.85858,165.85858 334.45723,153.25994 356,162.18066 356,180 c 0,11.04569 -8.95431,20 -20,20 z m 44,44 C 362.18066,244 353.25994,222.45723 365.85858,209.85858 378.45723,197.25994 400,206.18066 400,224 c 0,11.04569 -8.95431,20 -20,20 z"
     id="path4" />
</svg>

<svg xmlns="http://www.w3.org/2000/svg" width="512" height="512" viewBox="0 0 512 512"><title>ionicons-v5-g</title><path d="M478.07,356.88,439,151c-8.86-40.35-23-71-88-71H145c-66,0-79.14,30.65-88,71L18,356.88C11,391,22.43,418.13,51.37,428.69S103,423,119.18,391.3l15.42-30.52A16,16,0,0,1,148.88,352H347.16a16,16,0,0,1,14.28,8.78l15.42,30.52c16.14,31.7,38.88,48,67.81,37.39S485,391,478.07,356.88ZM224,240H176v48H144V240H96V208h48V160h32v48h48Zm68,4a20,20,0,1,1,20-20A20,20,0,0,1,292,244Zm44,44a20,20,0,1,1,20-20A20,20,0,0,1,336,288Zm0-88a20,20,0,1,1,20-20A20,20,0,0,1,336,200Zm44,44a20,20,0,1,1,20-20A20,20,0,0,1,380,244Z"/></svg>
